X:3
T:The Boys of the Town
R:trad Irish jig
C:3rd and 4th turns by Chris Langan
B:Move Your Finger's, The Life and Music of Chris Langan
S:http://www.cranfordpub.com/books/chris_langan_book.htm
Q:300
L:1/8
M:6/8
K:G
D|(3(GFG)G GBd|edB dBA|(3(GFG)G GBd|edB AFD|
(3(GFG)G GBd|edB gfg|edB AGA|BGG G2:|
|:e|def (3(gfg)g|afd edB|def g2 g|afd e2 B|
[1def (3(gfg)g|afd efg|edB AGA|BGG G2:|
[2def gbb|faa efg|edB AGA|BGG G2||
|:D|(3(GFG)G GBd|(3(gfg)g efg|(3(GFG)G (3(gfg)g|edB A2 B|
(3(GFG)G GBd|gfg efg|gdB AGA|BGG G2:|
|:d|(3(gfg)g egg|dgg Bdd|(3(gfg)g egf|edB A2 B|
[1(3(gfg)g egg|dgg Bdd|gdB AGA|BGG G2:|
[2GBd Ace|dgg gdB|gdB AGA|BGG G2||
